X:1
T:116 - Desejo da Alma
T:Letra: Fanny Jane Crosby (1820-1915)
T:Trad.: Sarah Poulton Kalley (1825-1907)
T:Música: William Howard Doane (1832-1915)
M:4/4
L:1/16
Q:1/4=110
K:Ab
V:1
"Ab"c6 B2 "Db"A3G A3F | "Ab"E8 A8 | "Eb7"B6 B2 "(Ab)"A4 "(Eb)"B4 | "Ab"c16 | c6 B2 "Db"A3G A3F | "Ab"E8 A8 | "Eb7"B6 A2 "(Ab/Eb)"c4 "(Eb7)"B4 | "Ab"A16 || "Ab"e8 c8 | ("Db"B6 A2) F8 | "Ab"E4 A4 c4 A4 | "Eb"B16 | "Ab"c6 B2 "Db"A3G A3F | "Ab"E8 A8 | "Eb7"B6 A2 "(Ab/Eb)"c4 "(Eb7)"B4 | "Ab"A16 |]
w: 1.~Vem, Es-pí-ri-to di-vi-no, Gran-deen-si-na-dor! Vem! Des-co-breàs nos-sas al-mas Cris-to,o Sal-va-dor! Cris-to, Mes_tre,    Ou-ve com fa-vor!    Em po-der e gra-çain-sig-ne    O-breo teu a-mor!
w: 2.~Vem! De-mo-leos a-li-cer-ces Daen-ga-no-sa paz, Aos er-ra-dos con-ce-den-do Sal-va-ção ve-raz!
w: 3.~Vem! Re-ves-tea tu-ai-gre-ja De po-der e luz! Vem! A-trai os pe-ca-do-res Ao Se-nhor Je-sus!
w: 4.~Ma-ra-vi-lhas so-be-ra-nas Ou-tros po-vos vêem; Oh, der-ra-maa mes-ma bên-ção So-bre nós tam-bém!
W: 
W:
W: 1. Vem, Espírito divino,
W: Grande ensinador!
W: Vem! Descobre às nossas almas
W: Cristo, o Salvador!
W: 
W:    (Estribilho)
W:    Cristo, Mestre,
W:    Ouve com favor!
W:    Em poder e graça insigne
W:    Obre o teu amor!
W:         
W: 2. Vem! Demole os alicerces
W: Da enganosa paz,
W: Aos errados concedendo
W: Salvação veraz!
W: 
W:
W:
W: 3. Vem! Reveste a tua igreja
W: De poder e luz!
W: Vem! Atrai os pecadores
W: Ao Senhor Jesus!
W: 
W: 4. Maravilhas soberanas
W: Outros povos vêem;
W: Oh, derrama a mesma bênção
W: Sobre nós também!
W: 
W: 





